dist/svgs/geomicons-open/icons/info.svg

<svg xmlns="http://www.w3.org/2000/svg" viewBox="0 0 32 32"><path d="M16 0a16 16 0 010 32 16 16 0 010-32m3 15h-6v11h6zm-3-9a3 3 0 000 6 3 3 0 000-6"/></svg>

<svg id="info" xmlns="http://www.w3.org/2000/svg" viewBox="0 0 32 32" width="32" height="32" fill="currentcolor">
  <path d="M16 0 A16 16 0 0 1 16 32 A16 16 0 0 1 16 0 M19 15 L13 15 L13 26 L19 26 z M16 6 A3 3 0 0 0 16 12 A3 3 0 0 0 16 6"></path>
</svg>
